X:6
T:Saxon’s Hornpipe,aka. RDO.06
M:4/4
L:1/8
Q:1/2=80
C:untitled in ms
S:Robert D. Owen MS,Indiana,1826.
R:.Hornpipe
O:Indiana,USA
A:New Harmony
Z:vmp.Chris Partington
K:Bb
FE|D<FB2B2AB|cAFAB2Bc|d<B”tr”B2e<c”tr”c2|fdBd cAFE|!
E<FB2B2A>B|cAFAB2AB|cfdB AFG=E|F2F2F2:|!
|:de|fedc B=AGF|G2E2E2|ef|gfed cfdB|A2F2F2de|!
fdfd gege|fdfd gege|fbag fedc|B2B2B2:|

